X:1
T: Larry Down's Reel
C:
R:Reel
Q: 232
K:E
M:4/4
L:1/8
|:((3EFE) GB eg bg|((3fff) fe gf ec|((3EFE) GB eg bg|fe gf e2 e2|
((3EFE) GB eg bg|((3fff) fe gf ec|((3EFE) GB eg bg|fe gf e2 e2|
ge be gb eg|fe ge fe ce|ge be gb eg|fe gf e3e|
ge be gb eg|fe ge c4|BE GB EG Bg|fe gf e2 e2:|
